X:18015
T:Roulante, La
T:LNB Polka, The
R:Polka
C:Jean Blanchard, 1980s
O:France
N:A 'Roulante' was a wheeled kitchen to feed troops in WWI.
Z:Paul Hardy's Session Tunebook 2022 (see www.paulhardy.net). Creative Commons cc by-nc-sa licenced.
M:2/2
L:1/4
Q:1/2=80
K:Dmix
"D"dA "C"c>B|"D"AF "G"GF/G/|"D"A>B A/B/A/G/|"A7"FA E2|"D"dA "C"c>B|"D"AF "G"GF/G/|"D"A>B "A7"A/B/A/G/|FE "D"D2:|
|:"Em"GE B/E/G/B/|G/E/B BA/G/|"D"FD A/D/F/A/|F/D/A AG/F/|"Em"GE B/E/G/B/|G/E/B B2|"D"A>B "A7"A/B/A/G/|FE "D"D2:|

